img/icons/post-it-icon.svg

<svg width="14" height="13" viewBox="0 0 14 13" fill="none" xmlns="http://www.w3.org/2000/svg">
<path d="M12.3047 0.062397L0.813676 5.07128C0.249431 5.3173 0.223558 6.10812 0.770566 6.39046L3.10135 7.59347L10.0433 2.76435C10.1154 2.71415 10.1922 2.77359 10.1959 2.84139L4.38046 8.39243C4.23605 8.53033 4.15435 8.72132 4.15435 8.92099V11.4916C4.15435 12.2296 5.12369 12.5024 5.50855 11.8727L6.91941 9.56403L9.90451 11.1048C10.3253 11.3219 10.8383 11.0877 10.9498 10.6276L13.3069 0.90443C13.4491 0.317449 12.8584 -0.178926 12.3047 0.062397Z" fill="white"/>
</svg>

<svg width="14" height="13" fill="none" xmlns="http://www.w3.org/2000/svg"><path d="M12.305.062L.814 5.072A.73.73 0 00.77 6.39L3.1 7.593l6.942-4.829c.072-.05.15.01.153.077L4.38 8.392a.73.73 0 00-.226.529v2.57c0 .739.97 1.011 1.355.382l1.41-2.309 2.986 1.54a.73.73 0 001.045-.476L13.307.904a.73.73 0 00-1.002-.842z" fill="#fff"/></svg>
